images/svg/icons-shop/like.svg

<svg width="20" height="19" viewBox="0 0 20 19" fill="none" xmlns="http://www.w3.org/2000/svg">
<path d="M5.87389 0C2.64601 0 0 2.73244 0 6.06489C0 7.95506 1.06659 9.60357 2.7276 11.4568C4.38861 13.31 6.70525 15.4333 9.49464 18.3159C9.77123 18.6008 10.2287 18.6009 10.5052 18.3159C13.3045 15.4327 15.6191 13.3103 17.278 11.4568C18.9369 9.60327 20 7.95363 20 6.06489C20 2.73252 17.3541 0 14.1261 0C13.2989 0 12.5771 0.225358 11.9432 0.595126C10.7861 1.27011 9.21312 1.27041 8.05602 0.595357C7.42207 0.22551 6.70024 0 5.87335 0H5.87389ZM5.87389 1.47308C7.44509 1.47308 8.56114 2.46312 9.38858 3.8841C9.66143 4.35397 10.3405 4.35345 10.6142 3.8841C11.4419 2.46312 12.555 1.47308 14.1262 1.47308C16.5721 1.47308 18.5708 3.53392 18.5708 6.06489C18.5708 7.37505 17.8053 8.69375 16.2286 10.4551C15.052 11.7698 13.377 13.3822 11.4368 15.3164C10.6442 16.1066 9.35711 16.1057 8.56538 15.3146C6.63053 13.3813 4.95821 11.7697 3.78039 10.4551C2.2009 8.69299 1.42974 7.37328 1.42974 6.06489C1.42974 3.53401 3.42832 1.47308 5.87425 1.47308H5.87389Z" fill="#D4DCE2"/>
</svg>

<svg width="20" height="19" fill="none" xmlns="http://www.w3.org/2000/svg"><path d="M5.874 0C2.646 0 0 2.732 0 6.065c0 1.89 1.067 3.539 2.728 5.392 1.66 1.853 3.977 3.976 6.767 6.859a.704.704 0 0 0 1.01 0c2.8-2.883 5.114-5.006 6.773-6.86C18.937 9.604 20 7.955 20 6.066 20 2.733 17.354 0 14.126 0a4.26 4.26 0 0 0-2.183.595c-1.157.675-2.73.675-3.887 0A4.259 4.259 0 0 0 5.873 0Zm0 1.473c1.571 0 2.687.99 3.515 2.411a.71.71 0 0 0 1.225 0c.828-1.42 1.941-2.41 3.512-2.41 2.446 0 4.445 2.06 4.445 4.59 0 1.311-.766 2.63-2.342 4.391-1.177 1.315-2.852 2.927-4.792 4.861-.793.79-2.08.79-2.872-.001-1.934-1.934-3.607-3.545-4.785-4.86-1.58-1.762-2.35-3.082-2.35-4.39 0-2.531 1.998-4.592 4.444-4.592Z" fill="#D4DCE2"/></svg>
